X:1
T: Mrs. Farquharson's Jigg
C:
R:Jig
Q:180
K:Cm
M:6/8
L:1/16
G2|c2=B2c2 G2E2C2|c2=B2c2 e2d2c2|c2=B2c2 G2=A2_B2|F2G2E2 D2C2B,2|c2=B2c2 G2E2C2|c2d2e2 d2e2c2|=B2G2g2 f2e2d2|e2c2c2 c4G2|
c2=B2c2 G2E2C2|c2=B2c2 e2d2c2|c2=B2c2 G2=A2_B2|F2G2E2 D2C2B,2|c2=B2c2 G2E2C2|c2d2e2 d2e2c2|=B2G2g2 f2e2d2|e2c2c2 c4c2|
g2f2g2 e2d2c2|g2f2g2 f2e2d2|g2f2g2 c2d2e2|=B2c2d2 G6|g2f2g2 e2d2c2|g2f2g2 f2e2d2|e2f2g2 f2e2d2|e2c2c2 c6|
g2f2g2 e2d2c2|g2f2g2 f2e2d2|g2f2g2 c2d2e2|=B2c2d2 G4F2|E2D2C2 F2E2D2|G2F2E2 A2G2F2|G2e2d2 c2d2=B2|c4c2 c4||
